icon_quote_left.svg

<svg width="37" height="48" viewBox="0 0 37 48" fill="none" xmlns="http://www.w3.org/2000/svg">
<path d="M28.1281 11.9761L32.8321 15.0481C31.6261 15.8723 30.4719 16.77 29.3761 17.7361C28.3954 18.6481 27.496 19.6439 26.6881 20.7121C25.9296 21.657 25.2851 22.6881 24.7681 23.7841C24.2561 24.8081 23.9681 25.9281 23.9041 27.1441L22.5601 26.6641C23.0721 25.9601 23.6161 25.5121 24.1921 25.3201C24.8321 25.0641 25.5681 24.9361 26.4001 24.9361C28.0001 24.9361 29.3121 25.4161 30.3361 26.3761C31.4241 27.2721 31.9681 28.5521 31.9681 30.2161C31.9681 31.7521 31.4241 33.0321 30.3361 34.0561C29.3121 35.0161 27.9681 35.4961 26.3041 35.4961C24.5121 35.4961 23.0401 34.9521 21.8881 33.8641C20.8001 32.7121 20.2561 30.9521 20.2561 28.5841C20.2561 26.9201 20.4481 25.2881 20.8321 23.6881C21.252 22.1597 21.8312 20.6796 22.5601 19.2721C23.3021 17.9051 24.136 16.5901 25.0561 15.3361C26.0161 14.0561 27.0401 12.9361 28.1281 11.9761ZM11.6161 11.9761L16.3201 15.0481C15.1141 15.8723 13.9599 16.77 12.8641 17.7361C11.8834 18.6481 10.984 19.6439 10.1761 20.7121C9.41755 21.657 8.7731 22.6881 8.25614 23.7841C7.79654 24.8528 7.50509 25.9862 7.39214 27.1441L6.14414 26.6641C6.59214 25.9601 7.10414 25.5121 7.68014 25.3201C8.32014 25.0641 9.05614 24.9361 9.88814 24.9361C11.4881 24.9361 12.8321 25.4161 13.9201 26.3761C15.0081 27.2721 15.5521 28.5521 15.5521 30.2161C15.5521 31.7521 15.0081 33.0321 13.9201 34.0561C12.8321 35.0161 11.4561 35.4961 9.79214 35.4961C8.06414 35.4961 6.62414 34.9521 5.47214 33.8641C4.32014 32.7121 3.74414 30.9521 3.74414 28.5841C3.74414 26.9201 3.93614 25.2881 4.32014 23.6881C4.74004 22.1597 5.31921 20.6796 6.04814 19.2721C6.79953 17.8893 7.66662 16.5726 8.64014 15.3361C9.60014 14.0561 10.5921 12.9361 11.6161 11.9761Z" fill="#56221E"/>
</svg>

<svg xmlns="http://www.w3.org/2000/svg" width="37" height="48" fill="none"><path fill="#041B2D" fill-opacity=".9" d="m28.128 11.976 4.704 3.072a35.607 35.607 0 0 0-3.456 2.688 23.05 23.05 0 0 0-2.688 2.976 15.406 15.406 0 0 0-1.92 3.072c-.512 1.024-.8 2.144-.864 3.36l-1.344-.48c.512-.704 1.056-1.152 1.632-1.344.64-.256 1.376-.384 2.208-.384 1.6 0 2.912.48 3.936 1.44 1.088.896 1.632 2.176 1.632 3.84 0 1.536-.544 2.816-1.632 3.84-1.024.96-2.368 1.44-4.032 1.44-1.792 0-3.264-.544-4.416-1.632-1.088-1.152-1.632-2.912-1.632-5.28 0-1.664.192-3.296.576-4.896a22.65 22.65 0 0 1 1.728-4.416 34.36 34.36 0 0 1 2.496-3.936c.96-1.28 1.984-2.4 3.072-3.36Zm-16.512 0 4.704 3.072a35.607 35.607 0 0 0-3.456 2.688 23.05 23.05 0 0 0-2.688 2.976 15.406 15.406 0 0 0-1.92 3.072 11.276 11.276 0 0 0-.864 3.36l-1.248-.48c.448-.704.96-1.152 1.536-1.344.64-.256 1.376-.384 2.208-.384 1.6 0 2.944.48 4.032 1.44 1.088.896 1.632 2.176 1.632 3.84 0 1.536-.544 2.816-1.632 3.84-1.088.96-2.464 1.44-4.128 1.44-1.728 0-3.168-.544-4.32-1.632-1.152-1.152-1.728-2.912-1.728-5.28 0-1.664.192-3.296.576-4.896a22.65 22.65 0 0 1 1.728-4.416 27.886 27.886 0 0 1 2.592-3.936c.96-1.28 1.952-2.4 2.976-3.36Z"/></svg>
